!!!COM: Felix Mendelssohn
!!!CNT: Deutsch
!!!TXO: Deutsch
!!!OTL: Fru2hlingsglaube
!!!LYR: Uhland
!!!OPS: Op. 9
!!!ONM: No. 8
!!!ENC: Daniel Alt & Leigh VanHandel
!!!YOR: Sa2mmtliche Lieder fu2r eine Singstimme 
!!!YOR: Neu revidirt von Dr. L. Benda, Ausgabe fu2r mittlere Stimme
!!!YOR: Braunschweig. Henry Litolff's Verlag. Boston and New York: Arthur P. Schmidt.
!!!ODT: 1830/
**kern
*staff1
=1-
*clefG2
*k[]
*M6/8
2.r
=2
2.r
=3
2.r
=4
2.r
=5
2.r
=6
4r
8r
8r
{8e
8f
=7
[4.g
8g]
8e
8c
=8
[4.cc
8cc]
8b
8a
=9
4a
8r
4g
8r
=10
4e}
8r
4r
{8g
=11
4.cc
4b
8b
=12
4.a
4.g
=13
4.cc
4.b
=14
4.a}
4r
{8g
=15
[4.a
8a]
8b
8cc
=16
[4.a
8a]
8b
8cc
=17
2.dd
=18
4gg-
8ee
8dd
8cc
8a
=19
4g}
8r
{8cc
8b
8b-
=20
4a
8r
8cc
8b
8b-
=21
4a
8r
8cc
8b
8b-
=22
4a
8d
4d
8d
=23
4.d}
4r
8r
=24
{4.cc
4a
8a
=25
2.cc}
=26
{4ee
8dd
4cc
8b
=27
4dd
8cc
4a
8f
=28
4.e
4g
8f
=29
4e}
8r
{8cc
8b
8b-
=30
4a
8r
8cc
8b
8b-
=31
4a}
8r
4r
{8g
=32
4.a
4.b
=33
4dd
8cc
4a
8f
=34
4.e
8d
8a
8g
=35
4g}
8r
4r
{8g
=36
[2.g
=37
8g]
8f
8e
4ee
8dd
=38
4.cc
4.b
=39
4.cc}
4r
8r
==
*-